!!!COM: Anonim
!!!CDT: [?]
!!!OTL@@LAT: Aue uerum corpus domini
!!!TXO: Latin
!!!ODT: 
!!!GTL: Hymnbook A
!!!ARL: Opactwo św. Wojciecha, Staniątki 
!!!voices:	1
**kern
*staff1
*I"[Canto]
*oclefC1
*clefG2
*k[]
!*met(c|)
*M2/1
=-
!LO:TX:Y=0:t=no meter indication
0e
0g
1a
1a
0g
0g
1a
1g
1a
1b
1g
0cc
1a
0a
0b;
=-
1b
1g
1a
1g
0g
1g
0g
1f
0g
1e
1e
0g
1g
1g
1g
1.cc
4b
4a
1b
0cc;
=-
1g
1g
0f
1e
0e
1d
0e;
=-
1e
1e
1a
1g
1f
1f
0e
0e
1cc
1cc
0b
1a
0a
1g
0a;
=-
1g
1g
0a
1g
0cc
1b
0a
0b
1e
1e
0g
0f
1e
1.e
4d
4c
1d
0e;
=-
0cc
0cc
0b
0cc
0a
0g;
=-
0g
0g
1g
1a
1g
1.b
4a
4g
1a
0b
0cc
1b
1b
0a
0g
1cc
1b
1a
1g
0a
1e
1e
2.g
4f
1e
4d
4c
1d
0e
==
*-
!!title: @{OTL}, @{GTL}: @{pag}, ed. @{ENC}
!!!pag: p. 44r
!!!GTL: Hymnbook A
!!!EFL: 
!!!YEM: Creative Commons CC/BY/NC/SA 4.0
!!!ENC: Marcin Konik
!!!END: 2015-03-04
!!!EED: Marcin Konik
!!!EEV: 
!!!ONB: Encoded in vim by Marcin Konik
!!!CharacterEncoding: utf-8
!!!RDF**kern: l=long note in original notation
!!!RDF**kern: i=editorial accidental
!!muse2ps: z14jc180F
